src/pos-icons/map-marker-alert.svg

<svg height="24" viewBox="0 0 24 24" width="24" xmlns="http://www.w3.org/2000/svg"><path d="m12 2c3.86 0 7 3.13 7 7 0 5.25-7 13-7 13s-7-7.75-7-13a7 7 0 0 1 7-7m-1 4v5h2v-5zm0 7v2h2v-2z"/></svg>

<?xml version="1.0" encoding="UTF-8"?><!DOCTYPE svg PUBLIC "-//W3C//DTD SVG 1.1//EN" "http://www.w3.org/Graphics/SVG/1.1/DTD/svg11.dtd"><svg xmlns="http://www.w3.org/2000/svg" xmlns:xlink="http://www.w3.org/1999/xlink" version="1.1" id="mdi-map-marker-alert" width="24" height="24" viewBox="0 0 24 24"><path d="M12,2C15.86,2 19,5.13 19,9C19,14.25 12,22 12,22C12,22 5,14.25 5,9A7,7 0 0,1 12,2M11,6V11H13V6H11M11,13V15H13V13H11Z" /></svg>
